packages/core/src/svgs/tokens/branded/UNCX.svg

<svg width="24" height="24" viewBox="0 0 24 24" fill="none" xmlns="http://www.w3.org/2000/svg">
<path d="M11.9999 22C17.5228 22 22 17.5228 22 11.9999C22 6.47713 17.5228 2 11.9999 2C6.47714 2 2 6.47713 2 11.9999C2 17.5228 6.47714 22 11.9999 22Z" fill="url(#paint0_linear_364_11069)"/>
<path d="M12.6253 21.3742C17.0003 21.3742 21.3753 16.4244 21.3753 11.3743C21.3753 10.568 21.3753 9.49935 20.7502 8.87434C19.2753 7.44933 17.8627 6.73684 17.869 6.74309L17.0064 7.70559C17.0189 7.68058 17.3815 6.54934 17.3815 6.52434C17.3815 6.52434 15.9003 5.89309 14.5627 5.81185L14.2939 7.13058L14.1189 5.7681C14.0377 5.7681 12.3877 5.65559 10.9752 5.99934L11.6377 7.19935C11.0752 7.07434 10.5377 7.12434 9.83143 8.15559L8.36273 7.88683V7.89309L4.50024 7.20559L9.01898 9.30554C9.01898 9.30554 6.83148 12.7431 6.60024 13.1306C6.35649 13.5369 6.10024 14.2618 7.43148 14.5993C7.68149 14.6805 7.93149 14.7305 8.19399 14.7556C9.60028 14.7119 10.8877 14.2306 12.1753 13.7556L12.7003 13.5618C13.8003 14.5306 14.1065 15.8119 13.3502 17.0369C12.1627 18.9619 8.88149 18.9118 7.00024 18.8744C8.70023 20.018 10.4378 21.3742 12.6253 21.3742ZM12.169 9.98687L10.7502 11.0306C10.7502 11.0306 10.3127 10.5181 10.8753 10.093C11.0655 9.97024 11.283 9.89616 11.5088 9.87764C11.7344 9.85912 11.9613 9.8966 12.169 9.98687Z" fill="white"/>
<path d="M10.1249 20.7498C10.1249 20.7498 9.03125 20.5935 7 18.8748C8.88124 18.9186 12.0187 18.9623 13.2 17.0373C14.3875 15.1123 13.1125 13.9435 12.7 13.5623C12.7 13.5623 15.275 12.0748 15.1249 10.1248C16.7688 12.0498 16.9999 13.7998 16.9999 15.7498C16.9999 18.0934 13.5625 20.7498 10.1249 20.7498Z" fill="#C7FCDC"/>
<defs>
<linearGradient id="paint0_linear_364_11069" x1="2" y1="11.9999" x2="22" y2="11.9999" gradientUnits="userSpaceOnUse">
<stop stop-color="#00C68B"/>
<stop offset="1" stop-color="#00E860"/>
</linearGradient>
</defs>
</svg>

<svg xmlns="http://www.w3.org/2000/svg" width="24" height="24" fill="none" viewBox="0 0 24 24">
    <path fill="url(#UNCX__a)" d="M12 22c5.523 0 10-4.477 10-10S17.523 2 12 2 2 6.477 2 12s4.477 10 10 10"/>
    <path fill="#fff" d="M12.625 21.374c4.375 0 8.75-4.95 8.75-10 0-.806 0-1.875-.625-2.5-1.475-1.425-2.887-2.137-2.881-2.13l-.863.962a43 43 0 0 0 .375-1.182s-1.48-.63-2.818-.712l-.27 1.319-.174-1.363c-.081 0-1.731-.112-3.144.231l.663 1.2c-.563-.125-1.1-.075-1.807.957l-1.468-.27v.007L4.5 7.206l4.519 2.1S6.831 12.743 6.6 13.13c-.244.406-.5 1.13.831 1.468.25.082.5.131.763.157 1.406-.044 2.694-.525 3.981-1l.525-.194c1.1.969 1.407 2.25.65 3.475-1.187 1.925-4.469 1.875-6.35 1.837 1.7 1.144 3.438 2.5 5.625 2.5M12.17 9.987l-1.42 1.043s-.437-.513.125-.938a1.38 1.38 0 0 1 1.294-.106"/>
    <path fill="#C7FCDC" d="M10.125 20.75S9.03 20.593 7 18.875c1.881.044 5.019.087 6.2-1.838 1.188-1.925-.087-3.093-.5-3.475 0 0 2.575-1.487 2.425-3.437C16.769 12.05 17 13.8 17 15.75c0 2.343-3.437 5-6.875 5"/>
    <defs>
        <linearGradient id="UNCX__a" x1="2" x2="22" y1="12" y2="12" gradientUnits="userSpaceOnUse">
            <stop stop-color="#00C68B"/>
            <stop offset="1" stop-color="#00E860"/>
        </linearGradient>
    </defs>
</svg>
